X:1
T:Bluey Brink
M:3/4
L:1/4
K:Bb
 B| G B d| c d A| F G A| G2 G| G G G| g2 g/2g/2| f g g| g2 G/2G/2|\
 G- G G| g g g| f d c| d2 G| G B d| c d3/2 A/2| F G A| G2||
